X:1     %Music
T:Highland Mary     %Tune name
C:     %Tune composer
N:Filkins Tradition     %Tune infos
Q:1/4=120     %Tempo
V:1     %
     %!STAVE 0 'Piano 1' @
     %!INSTR 'Piano 1 [Ch1]' 0 0 @
M:4/4     %Meter
L:1/8     %
K:G
G2 BA GF ED |G2 AB c4 |d2 ed c2 BA |G3 F D4 |G2 BA GF ED |G2 AB c4 |d2 ed c2 A2 |G4 G4 |e2 c2 c3 c |c2 B2 c4 |c2 ed c2 BG |G3 F D4 |G2 BA GF ED |G2 AB c4 |d2 ed c2 A2 |G4 G4 |]
     %End of file
